X: 54
T: Tête à tête
C: Ulli Alles
R: waltz
M: 3/4
L: 1/8
K: C
"C" e3 d c2| "Em" g4 e2 | [M:2/4] "F"A2 A2 | [M:3/4] "G"B2 c2 d2 | "C"e3 d c2| "Em"g4 e2 | [M:2/4] "F"A2 A2 | [M:3/4] "G" B6 :|
|: "Am" c3 B A2 | "F" c2 B2 A2| [M:2/4] "Em" E2 E2 | [M:3/4] E2 B2 d2 |"Am" c3 B A2 | "F" c2 B2 A2| [M:2/4] "Em" E2 E2 | [M:3/4] E6 :|

